X:1
T:Lily & Jiji
T:Lily & Jiji - リリーとジジ
T:Joe Hisaishi Trans. August Jansson 
T:Kiki's Delivery Service - 魔女の宅急便
C:Joe Hisaishi
%%score { 1 | 2 }
L:1/8
Q:1/4=132
M:4/4
K:D
V:1 treble nm="Piano" snm="Pno."
V:2 bass 
V:1
"^Allegro""^A" (3[fa][=f_a][eg] (3:2:2[^d^f]2 [=d=f] (3:2:2[ce]2 [=c_e] (3:2:2[Bd]2 [^A^c] | %1
 (3[A=c][^GB][=G_B] (3:2:2[FA]2 [=F_A] [EG] z [CE=A]2 | %2
S"^B" (3:2:2[Adfa]2 [Adfa] [dfad']2 [cfac']2 (3:2:2[dfad']2 [Adfa]- | %3
 (3:2:2[Adfa]2 [Adfa] [dfad']2 [cfac']2 [dfad']2 | [_Beg_b]2 (3:2:2[Begb]2 [Aega] [Begb]2 z2 | %5
 [_Beg_b]2 (3:2:2[Begb]2 [Aega] [Begb]2 z2 | %6
 (3:2:2[Adfa]2 [Adfa] [dfad']2 [cfac']2 (3:2:2[dfad']2 [Adfa]- | %7
 (3:2:2[Adfa]2 [Adfa] [dfad']2 [cfac']2 [dfad']2 | %8
 [e^gbe']2 (3:2:2[egbe']2 [dgbd'] [egbe']2 [Begb]2 | [ceac']8 | %10
"^C" (3:2:2[Adfa]2 [Adfa] [dfad']2 [cfac']2 (3:2:2[dfad']2 [Adfa]- | %11
 (3:2:2[Adfa]2 [Adfa] [dfad']2 [cfac']2 [dfad']2 | [_Beg_b]2 (3:2:2[Begb]2 [Aega] [Begb]2 z2 | %13
 [_Beg_b]2 (3:2:2[Begb]2 [Aega] [Begb]2 z2 | %14
 (3:2:2[Adfa]2 [Adfa] [dfad']2 [cfac']2 (3:2:2[dfad']2 [Adfa]- | %15
 (3:2:2[Adfa]2 [Adfa] [dfad']2 [cfac']2 [dfad']2 | %16
 [e^gbe']2 (3:2:2[egbe']2 [dgbd'] (3:2:2[egbe']2 [ff'] (3:2:2[=gg']2 [^g^g'] | %17
 [ac'e'a']6 (3:2:2[dd']2 [ee'] | %18
"^D" (3:2:2[fad'f']2 [^ead'^e'] [fad'f']2 (3:2:2[fad'f']2 [gbd'g'] (3:2:2[fad'f']2 [=e^ac'=e']- | %19
 [eac'e']4 (3:2:2z2 [e^ac'e'] (3:2:2[fac'f']2 [eac'e'] | %20
 [dgbd']4 (3:2:2z2 [dgbd'] (3:2:2[egbe']2 [dgbd'] | [ceac']6 (3:2:2z2 [Aa] | %22
 (3:2:2[^Aeg^a]2 [Begb]- (3:2:2[Begb]2 [fbd'f']- (3:2:2[fbd'f']2 [fbd'f']- (3:2:2[fbd'f']2 [Begb] | %23
 (3:2:2[=cfa=c']2 [^cfa^c']- (3:2:2[cfac']2 [ac'e'a']- [ac'e'a']2- (3:2:2[ac'e'a']2 [gc'e'g'] | %24
 (3:2:2[fbd'f']2 [^ebd'^e'] (3:2:2[fbd'f']2 [ebd'e'] (3:2:2[fbd'f']2 [=e=e'] (3:2:2[d^gbd']2 [eac'e']- | %25
 [eac'e']4 [Aa]2 (3:2:2!>![Aa]2 !>![_B_b]- | %26
 [Bb]2 !>![=B=b]2 !>![gg']2 (3:2:2!>![ff']2 !>![=c=c']- | %27
 (3:2:2[cc']2 !>![=c=c'] (3:2:2!>![^c^c']2 !>![aa']- (3:2:2[aa']2 [aa']- (3:2:2[aa']2 [gg'] | %28
 (3:2:2[fad'f']2 [^ead'^e'] (3:2:2[fad'f']2 [dfad'] (3:2:2[=eac'=e']2 [^dac'^d'] (3:2:2[eac'e']2 [ceac']!dacoda! | %29
 !>![=dfa=d']2 (3!>![Begb][=ceg=c'][^ceg^c'] !>![dfad']2 z2 | %30
"^E" (3:2:2[fad'f']2 [gg'] (3:2:2[^g^g']2 [ad'f'a'] (3:2:2[fad'f']2 [=g=g'] (3:2:2[^g^g']2 [ad'f'a'] | %31
 (3:2:2[dfad']2 [ee'] (3:2:2[^e^e']2 [fad'f'] (3:2:2[dfad']2 [=e=e'] (3:2:2[^eac'^e']2 [fad'f'] | %32
 (3:2:2[=eg_b=e']2 [=f=f'] (3:2:2[^f^f']2 [gbe'g'] (3:2:2[=egb=e']2 [=f=f'] (3:2:2[^f^f']2 [gbe'g'] | %33
 (3:2:2[eg_be']2 [=f=f'] (3:2:2[^f^f']2 [gbe'g'] (3:2:2[=egb=e']2 [=f=f'] (3:2:2[^f^f']2 [gbe'g'] | %34
 (3:2:2[fad'f']2 [^ead'^e'] (3:2:2[fad'f']2 [ead'e'] (3:2:2[fad'f']2 [ead'e'] (3:2:2[fad'f']2 [dfad']- | %35
 [dfad']8 | (3:2:2[e^gbe']2 [^dgb^d'] [egbe']2 [Begb]2 (3:2:2[egbe']2 [=dgb=d'] | [ceac']2 z2 z4 | %38
"^F" (3:2:2[Adfa]2 [Adfa] [dfad']2 [eac'e']2 [fad'f']2 | %39
 (3:2:2[Adfa]2 [Adfa] [dfad']2 [eac'e']2 [fad'f']2 | %40
 (3:2:2[g_be'g']2 [fbe'f'] [gbe'g']2 [egbe']2 [gbe'g']2 | %41
 (3:2:2[g_be'g']2 [gbe'g'] (3:2:2[fbe'f']2 [gbe'g'] [egbe']2 [_Begb]2 | %42
 (3:2:2[Adfa]2 [Adfa] [dfad']2 [eac'e']2 [fad'f']2 | [fad'f']6 (3:2:2z2 [fad'f'] | %44
 (3:2:2[e^gbe']2 [egbe'] (3:2:2[egbe']2 [dd'] (3:2:2[egbe']2 [egbe']- (3:2:2[egbe']2 [Dd] | %45
 [CEAc]6 (3:2:2d2 e |"^G" (3:2:2f2 ^e f2 (3:2:2f2 g (3:2:2f2 =e- | e4 (3:2:2z2 e (3:2:2f2 e | %48
 d4 (3:2:2z2 d (3:2:2e2 d | c6 (3:2:2z2 A | (3:2:2^A2 B- (3:2:2B2 f- f2 (3:2:2z2 B | %51
 (3:2:2=c2 ^c a2- a2 (3:2:2z2 g | (3:2:2f2 ^e (3:2:2f2 e (3:2:2f2 =e (3:2:2d2 e- | %53
 e4 [A,CEA]2 (3:2:2!>!A2 !>!_B- | B2 !>!=B2 !>!g2 (3:2:2!>!f2 !>!=c- | %55
 (3:2:2c2 =c (3:2:2^c2 a- (3:2:2a2 a- (3:2:2a2 g | %56
 (3:2:2!>![Adf]2 ^e (3:2:2f2 d (3:2:2!>![Gc=e]2 ^d (3:2:2e2 c | %57
 !>![FA=d]2 (3!>!B=c^c !>![FAd]2 z2!D.S.! | %58
O !>![dfad']2 (3!>![Begb][=ceg=c'][^ceg^c'] !>![dfad']2 z2 | %59
"^H" (3[fa][=f_a][eg] (3:2:2[^d^f]2 [=d=f] (3:2:2[ce]2 [=c_e] (3:2:2[Bd]2 [^A^c] | %60
 (3[=A=c][^GB][=G_B] (3:2:2[FA]2 [=F_A] [EG] z [CEG=A]2 | (3:2:2d2 ^G (3:2:2A2 _B- B4 | %62
 z2 !>![cegc']2 !>![dfad']2 !>!d2 |] %63
V:2
 !>![A,,,A,,]2 z2 z4 | !>![A,,,A,,]2 z2 z2 !>![A,,,A,,]2 | [D,,D,]2 [A,DF]2 [C,,C,]2 [A,DF]2 | %3
 [B,,,B,,]2 [A,DF]2 [A,,,A,,]2 [A,DF]2 | [E,,E,]2 [_B,EG]2 [_B,,,_B,,]2 [B,EG]2 | %5
 [E,,E,]2 [_B,EG]2 [_B,,,_B,,]2 [B,EG]2 | [D,,D,]2 [A,DF]2 [C,,C,]2 [A,DF]2 | %7
 [B,,,B,,]2 [A,DF]2 [A,,,A,,]2 [A,DF]2 | [^G,,,^G,,]2 [B,E^G]2 [G,,,G,,]2 [B,E]2 | %9
 [A,,,A,,]2 (3A,,_B,,=B,, (3=C,B,,_B,, A,,2 | [D,,D,]2 [A,DF]2 [C,,C,]2 [A,DF]2 | %11
 [B,,,B,,]2 [A,DF]2 [A,,,A,,]2 [A,DF]2 | [E,,E,]2 [_B,EG]2 [_B,,,_B,,]2 [B,EG]2 | %13
 [E,,E,]2 [_B,EG]2 [_B,,,_B,,]2 [B,EG]2 | [D,,D,]2 [A,DF]2 [C,,C,]2 [A,DF]2 | %15
 [B,,,B,,]2 [A,DF]2 [A,,,A,,]2 [A,DF]2 | [^G,,,^G,,]2 [B,E^G]2 [G,,,G,,]2 [B,E]2 | %17
 [A,,,A,,]2 (3A,,C,E, A,2 z2 | [D,,D,]2 [A,DF]2 [D,,D,]2 [E,,E,]2 | %19
 [F,,F,]2 [^A,EF]2 [C,,C,]2 [A,EF]2 | [G,,G,]2 [B,DG]2 [G,,G,]2 [B,DG]2 | %21
 [A,,A,]2 [CEA]2 [A,,,A,,]2 [CEA]2 | [E,,E,]2 [B,EG]2 [E,,E,]2 [B,EG]2 | %23
 [F,,F,]2 [CFA]2 [F,,F,]2 [CFA]2 | [^G,,^G,]2 [B,EB]2 [G,,G,]2 [B,EB]2 | %25
 [A,,A,]2 [CEA]2 [A,,,A,,]2 (3:2:2!>![A,,,A,,]2 !>![_B,,,_B,,]- | %26
 [B,,,B,,]2 !>![=B,,,=B,,]2 !>![G,,G,]2 (3:2:2!>![F,,F,]2 !>![=C,,=C,]- | %27
 (3:2:2[C,,C,]2 !>![=C,,=C,] (3:2:2!>![^C,,^C,]2 !>![A,,A,]- [A,,A,]4 | %28
 !>![A,,,A,,]2 z2 !>![A,,,A,,]2 z2 | !>![D,,D,]2 !>![A,,,A,,]2 !>![D,,D,]2 z2 | %30
 [D,,D,]2 [A,DF]2 [C,,C,]2 [A,DF]2 | [B,,,B,,]2 [A,DF]2 [A,,,A,,]2 [A,DF]2 | %32
 [E,,E,]2 [_B,EG]2 [_B,,,_B,,]2 [B,EG]2 | [E,,E,]2 [_B,EG]2 [_B,,,_B,,]2 [B,EG]2 | %34
 [D,,D,]2 [A,DF]2 [C,,C,]2 [A,DF]2 | [B,,,B,,]2 [A,DF]2 [A,,,A,,]2 [A,DF]2 | %36
 [^G,,,^G,,]2 [B,E^G]2 [G,,,G,,]2 [B,E]2 | [A,,,A,,]2 (3A,,_B,,=B,, (3=C,B,,_B,, A,,2 | %38
 [D,,D,]2 [A,DF]2 [C,,C,]2 [A,DF]2 | [B,,,B,,]2 [A,DF]2 [A,,,A,,]2 [A,DF]2 | %40
 [E,,E,]2 [_B,EG]2 [_B,,,_B,,]2 [B,EG]2 | [E,,E,]2 [_B,EG]2 [_B,,,_B,,]2 [B,EG]2 | %42
 [D,,D,]2 [A,DF]2 [C,,C,]2 [A,DF]2 | [B,,,B,,]2 [A,DF]2 [A,,,A,,]2 [A,DF]2 | %44
 [^G,,,^G,,]2 [B,E^G]2 [G,,,G,,]2 [B,E]2 | [A,,A,]2 (3A,,^G,,A,, (3B,,^A,,B,, (3C,B,,C, | %46
 [D,,D,]2 [A,DF]2 [D,,D,]2 [E,,E,]2 | [F,,F,]2 [^A,EF]2 [C,,C,]2 [A,EF]2 | %48
 [G,,G,]2 [B,DG]2 [G,,G,]2 [B,DG]2 | [A,,A,]2 [CEA]2 [A,,,A,,]2 [CEA]2 | %50
 [E,,E,]2 [B,EG]2 [E,,E,]2 [B,EG]2 | [F,,F,]2 [CEA]2 [F,,F,]2 [CEA]2 | %52
 [^G,,^G,]2 [B,EB]2 [G,,G,]2 [B,EB]2 | %53
 [A,,A,]2 [A,CA]2 [A,,,A,,]2 (3:2:2!>![A,,,A,,]2 !>![_B,,,_B,,]- | %54
 [B,,,B,,]2 !>![=B,,,=B,,]2 !>![G,,G,]2 (3:2:2!>![F,,F,]2 !>![=C,,=C,]- | %55
 (3:2:2[C,,C,]2 !>![=C,,=C,] (3:2:2[^C,,^C,]2 [A,,A,]- [A,,A,]4 | %56
 !>![A,,,A,,]2 z2 !>![A,,,A,,]2 z2 | !>![D,,D,]2 !>![A,,,A,,]2 !>![D,,D,]2 z2 | %58
 !>![D,,D,]2 !>![A,,,A,,]2 !>![D,,D,]2 z2 | !>![A,,,A,,]2 z2 z4 | %60
 !>![A,,,A,,]2 z2 z2 !>![A,,,A,,]2 | (3:2:2D2 ^G, (3:2:2A,2 _B,- B,4 | %62
 z2 [A,,,A,,]2 [D,,D,]2!8vb(! !>!D,,,2!8vb)! |] %63

